packages/gestalt/src/icons/add-circle.svg

<svg width="24" height="24" xmlns="http://www.w3.org/2000/svg"><path fill="#B5B5B5" d="M17.75 13.25h-4.5v4.5a1.25 1.25 0 0 1-2.5 0v-4.5h-4.5a1.25 1.25 0 0 1 0-2.5h4.5v-4.5a1.25 1.25 0 0 1 2.5 0v4.5h4.5a1.25 1.25 0 0 1 0 2.5M12 0C5.37 0 0 5.37 0 12s5.37 12 12 12 12-5.37 12-12S18.63 0 12 0"/></svg>

<svg width="24" height="24" viewBox="0 0 24 24" xmlns="http://www.w3.org/2000/svg"><path fill="#B5B5B5" d="M17.75,13.25 L13.25,13.25 L13.25,17.75 C13.25,18.44 12.69,19.00 12.00,19.00 C11.31,19.00 10.75,18.44 10.75,17.75 L10.75,13.25 L6.25,13.25 C5.56,13.25 5.00,12.69 5.00,12.00 C5.00,11.31 5.56,10.75 6.25,10.75 L10.75,10.75 L10.75,6.25 C10.75,5.56 11.31,5.00 12.00,5.00 C12.69,5.00 13.25,5.56 13.25,6.25 L13.25,10.75 L17.75,10.75 C18.44,10.75 19.00,11.31 19.00,12.00 C19.00,12.69 18.44,13.25 17.75,13.25 M12.00,0.00 C5.37,0.00 0.00,5.37 0.00,12.00 C0.00,18.63 5.37,24.00 12.00,24.00 C18.63,24.00 24.00,18.63 24.00,12.00 C24.00,5.37 18.63,0.00 12.00,0.00"/></svg>
